X:1
T:Title
%%score { 1 | 2 }
L:1/8
M:4/4
K:Ab
V:1 treble nm="Grand Piano"
V:2 treble 
V:1
 z4 z2 z[Q:1/4=94] E | AAAB c A2 [CE] | [DF][FB] [FA]>[DF] [CE]3 [CE] | [DF][EG][FA]F E c2 c | %4
 cBBc [GB]3 E | AAAB c A2 [A,CE] | [A,DF][DFB] [DFA]>[A,DF] [A,CE]4 | eeef e c2 A | [GB]4 [EA]4 | %9
 [Fd][Fd]dd d [Fd]3 | cccc c c3 | AAAA A G2 A | [Ac]4 [GB]3 E | cc[Gc][GB] A3 A | dddc [GB]4 | %15
 eeef e c2 A |[M:8/4] [GB]4 [EA]4 z8 |] %17
V:2
 z4 z2 z [A,C] | [A,CE][A,CE][A,CE][A,DE] [A,EA][K:bass] [A,CE]2 [A,,A,] | %2
 [D,A,][D,D] [D,D]>[D,A,] [A,,A,]3 [A,,A,] | %3
 [D,A,][D,A,][D,D][D,A,D][K:treble] [A,C] [A,EA]2 [A,EA] | %4
 [B,=DA][B,DA][B,DA][B,DA][K:bass] [E,E]3 [E,_D] | %5
 [A,CE][A,CE][A,CE][K:treble][A,CE] [A,EA][K:bass] [A,CE]2 A,, | D,D, D,>D, G,,4 | %7
 [A,CA][A,CA][A,CA][A,DA] [A,CA] [A,EA]2[K:bass] [A,CE] | [E,D]4 [A,C]4 | %9
 [D,D][E,D][K:treble][F,DF][G,DF] [A,DF][K:bass] [D,D]3 | [A,EA][A,EA][A,EA][A,EA] [A,EA] [A,EA]3 | %11
 [B,=DF][B,DF][B,DF][B,DF] [B,DF] [B,DF]2 [B,DF] | [E,E]4 [E,E]3[K:treble] [A,C] | %13
 [A,EA][A,EA][K:bass][E,E][E,D][K:treble] [A,CE]3 [CE] | [B,EG][B,EG][B,EG][B,EA] [E,E]4 | %15
 [A,CA][A,CA][A,CA][A,DA] [A,CA] [A,EA]2[K:bass] [A,CE] |[M:8/4] [E,D]4 [A,C]4 z8 |] %17

